X:137
T:Jack Broke da Prison Door
S:Sessions
O:Shetland
Z:Nigel Gatherer
M:4/4
L:1/8
K:G
G2 BG BdBG|cBAB dBAB|G2 BG BdBG|ABAG E2 D2:|
g2 gd edBd|g2 gd eaaf|g2 gd edBG|ABAG E2 D2:|
<end>
<start>
